pages/Absolute/img/icon_summa.svg

<svg width="68" height="68" viewBox="0 0 68 68" fill="none" xmlns="http://www.w3.org/2000/svg">
<g clip-path="url(#clip0)">
<path d="M64.7787 24.3667H61.973V14.1667H29.8766L24.2427 6.23334H3.07837C1.38144 6.23334 0 7.6228 0 9.3296V58.8415H0.00676069C0.00112678 59.4796 0.198314 60.1041 0.594941 60.6265C1.14706 61.3519 1.98314 61.7667 2.8902 61.7667H53.3238C54.6264 61.7667 55.7735 60.8838 56.0845 59.7119L67.6069 27.9355V27.7349C67.6069 25.7833 66.4171 24.3667 64.7787 24.3667ZM59.7195 16.4333V24.3667H50.7052V20.9667C50.7052 20.3399 50.2004 19.8333 49.5784 19.8333C48.9564 19.8333 48.4516 20.3399 48.4516 20.9667V24.3667H42.8177V20.9667C42.8177 20.3399 42.3129 19.8333 41.6909 19.8333C41.069 19.8333 40.5642 20.3399 40.5642 20.9667V24.3667H34.9302V20.9667C34.9302 20.3399 34.4254 19.8333 33.8035 19.8333C33.1815 19.8333 32.6767 20.3399 32.6767 20.9667V24.3667H27.0428V20.9667C27.0428 20.3399 26.538 19.8333 25.916 19.8333C25.294 19.8333 24.7892 20.3399 24.7892 20.9667V24.3667H19.1553V20.9667C19.1553 20.3399 18.6505 19.8333 18.0285 19.8333C17.4065 19.8333 16.9017 20.3399 16.9017 20.9667V24.3667H14.3451C14.1839 24.3667 14.0251 24.3803 13.8696 24.4063C12.7721 24.5899 11.8571 25.3946 11.5844 26.4214L11.2273 27.4074L5.63391 42.8321V23.2333H12.3946V16.4333H31.4857H59.7195ZM7.22718 20.9667L10.141 18.0359V20.9667H7.22718ZM2.25356 9.3296C2.25356 8.87174 2.62428 8.5 3.07837 8.5H23.0821L27.1059 14.1667H10.8013L3.38035 21.6308V48.9271L2.25356 52.0189V9.3296ZM53.9379 59.0274C53.8636 59.3051 53.61 59.5 53.3238 59.5H2.8902C2.61639 59.5 2.45639 59.3425 2.3854 59.2484C2.31441 59.1555 2.20511 58.9583 2.2468 58.786L3.38035 55.6603V55.6614L13.7017 27.1989L13.731 27.1059C13.8053 26.8283 14.0589 26.6333 14.3451 26.6333H61.973H64.7787C65.2069 26.6333 65.3162 27.2521 65.3444 27.5615L53.9379 59.0274Z" fill="#387553"/>
</g>
<defs>
<clipPath id="clip0">
<rect width="67.6069" height="68" fill="white"/>
</clipPath>
</defs>
</svg>

<svg width="68" height="68" fill="none" xmlns="http://www.w3.org/2000/svg">
  <g clip-path="url(#clip0)">
    <path d="M64.779 24.367h-2.806v-10.2H29.877l-5.634-7.934H3.078C1.381 6.233 0 7.623 0 9.33v49.512h.007a2.893 2.893 0 00.588 1.785 2.863 2.863 0 002.295 1.14h50.434c1.302 0 2.45-.883 2.76-2.055l11.523-31.777v-.2c0-1.952-1.19-3.368-2.828-3.368zm-5.06-7.934v7.934h-9.014v-3.4a1.13 1.13 0 00-1.127-1.134 1.13 1.13 0 00-1.126 1.134v3.4h-5.634v-3.4a1.13 1.13 0 00-1.127-1.134 1.13 1.13 0 00-1.127 1.134v3.4H34.93v-3.4a1.13 1.13 0 00-1.127-1.134 1.13 1.13 0 00-1.126 1.134v3.4h-5.634v-3.4a1.13 1.13 0 00-1.127-1.134 1.13 1.13 0 00-1.127 1.134v3.4h-5.634v-3.4a1.13 1.13 0 00-1.127-1.134 1.13 1.13 0 00-1.126 1.134v3.4h-2.557c-.161 0-.32.013-.475.04-1.098.183-2.013.988-2.286 2.014l-.357.986-5.593 15.425V23.233h6.76v-6.8H59.72zM7.227 20.967l2.914-2.931v2.93H7.227zM2.254 9.33c0-.458.37-.83.824-.83h20.004l4.024 5.667H10.8l-7.42 7.464v27.296L2.253 52.02V9.329zm51.684 49.697a.639.639 0 01-.614.473H2.89a.621.621 0 01-.505-.252c-.07-.092-.18-.29-.138-.462L3.38 55.66v.001L13.702 27.2l.029-.093a.639.639 0 01.614-.473H64.78c.428 0 .537.62.565.928L53.938 59.028z" fill="#387553"/>
  </g>
  <defs>
    <clipPath id="clip0">
      <path fill="#fff" d="M0 0h67.607v68H0z"/>
    </clipPath>
  </defs>
</svg>
